!!!COM: Bach, Johann Sebastian
!!!CDT: 1685/3//-1750/7/28/
!!!OTL@@DE: Aus meines Herzens Grunde
!!!OTL@EN:  From the depths of my heart
!!!AGN: 4-Part Chorale
!!!SCT: BH 001
!!!SCT: BWV 269
!!!ONB1: Text by Georg Niege; 16th Century secular melody, first appears
!!!ONB2: in sacred use in Neu Catechismus-Gesangb�chlein, Hamburg, 1598.
!!!YEC: Copyright 2001 by Craig Stuart Sapp
!!!license: GNU General Public License (http://www.gnu.org/copyleft/gpl.html)
!!!SMA: 371 Bach Chorales, edited by Ludwig Erk, C.F. Peters
!!!PDT: 1850, 1865
!!!ONB: Harmony and Root analysis done manually by Craig Sapp
!! Beat 2 of measure 1 chord could also be IVb (with root on C)
**kern	**kern	**kern	**kern	**root	**harm
!bass	!tenor	!alto	!sprno	!	!
*Iorgan	*Iorgan	*Iorgan	*Iorgan	*Iorgan	*
*clefF4	*clefF4	*clefG2	*clefG2	*	*
*k[f#]	*k[f#]	*k[f#]	*k[f#]	*k[f#]	*k[f#]
*G:	*G:	*G:	*G:	*G:	*G:
*M3/4	*M3/4	*M3/4	*M3/4	*M3/4	*M3/4
*MM60	*MM60	*MM60	*MM60	*MM60	*MM60
*>[A,A,B]	*>[A,A,B]	*>[A,A,B]	*>[A,A,B]	*>[A,A,B]	*>[A,A,B]
*>A	*>A	*>A	*>A	*>A	*>A
4GG	4B	4d	4g	4GG	I
=1	=1	=1	=1	=1	=1
4G	4B	4d	2g	4GG	I
4E	8c	4e	.	4EE	IVb[vi]
.	8B	.	.	.	.
4F#	4A	4d	4dd	4DD	Vb
=2	=2	=2	=2	=2	=2
4G	4G	2d	4.b	4GG	I
4D	4F#	.	.	4DD	V
.	.	.	8a	.	.
4E	4G	4B	4g	4EE	vi
=3	=3	=3	=3	=3	=3
4C	8c	8e	4.g	4CC	IV
.	8B	8d	.	.	.
8BB	4c	8e	.	8CC	IV7d
8AA	.	8f#	8a	8FF#	viiob
4GG	4d	4g	4b	4GG	I
=4	=4	=4	=4	=4	=4
2D;	2d;	2f#;	2a;	2DD;	V;
4GG	4d	4g	4b	4GG	I
=5	=5	=5	=5	=5	=5
4FF#	4A	4d	2dd	4DD	Vb
4GG	4B	4e	.	4EE	vi7b
4AA	4c	4f#	4cc	4FF#	viiob
=6	=6	=6	=6	=6	=6
4BB	4d	2g	4b	4GG	Ib
4C	4e	.	2a	4AA	ii7b
4D	8d	4f#	.	4DD	V7
.	8c	.	.	.	.
=21	=21	=21	=21	=21	=21
2GG;	2B;	2d;	2g;	2GG;	I;
==	==	==	==	==	==
*-	*-	*-	*-	*-	*-
!!chor2scor: -l 2 -s 0.6 -o %b.pmx
